X:3623
T:Lepine,La. CJF.090
T:La Lepine. CJF.090
O:england
M:2/4
L:1/16
Q:100
S: C.J.Fox MS, 1829/33, Beverley,E.Yorks.
A:East Yorkshire
B:Kidson Coll.Mitchell Lib.M1805
K:G
ded|(^ab)g2zded|^abg2zgfg|efg^g abc'a|\
(g4 f) ded|^abg2zded|(^ab)g2zgfg|efg^g abc'f|
(a4 g)h||aba|fa(d2 d)def|gbg2 gfe^d|(fe)(gf) (ag)(ba)|\
(g4 f)aba|fa(d2 d)def|gbg2zfe^d|(fegb) d2^c2|
(e4 d) ""aba|fa(d2 d)def|gb(g2 g)fe^d|fegf agba|\
(g4 f)aba|fa(d2 d)fef|gb(g2 g)fe^d|fegb d2^c2|(e4"$"d)||


